X:1
T:Title
%%score { 1 | 2 }
L:1/8
Q:1/4=90
M:2/4
K:Eb
V:1 treble nm="Grand Piano"
V:2 bass 
V:1
 GE [DF]D | EG B2 | cA BG | [B,FA][B,EG] [B,DF]2 | [B,EG][G,E] [B,DF][A,B,D] | %5
w: William~Eddie~Marks * * *|||||
 [G,B,E][B,EG] [EGB]2 | [EAc][EAe] [EGB][B,EG] | [A,DF]2 [G,E]2 | [DF][DB] [E=A][Fe] | %9
w: ||||
 [Fd][DB] [Fd]2 | cd e=A | c2 [DB]2 | [Ge][B,GB] [_DEG][DE] | [CEA][EAc] [EGB]2 | %14
w: |||||
 [EAc][EAe] [EGB][B,EG] | [A,DF]2 [G,E]2 |] %16
w: ||
V:2
 [E,B,E][E,G,] [B,,B,][B,,A,B,] | [E,G,B,][E,B,E] [E,G,E]2 | [A,E][A,CE] [G,B,E][E,B,E] | %3
 D,E, B,,2 | E,E, B,,B,, | E,E, E,2 | A,,C, E,E, | B,,2 E,2 | [B,,B,][B,,B,] [F,C][F,=A,] | %9
 [B,,B,][B,,B,] [B,,B,]2 | [F,=A,F][F,B,F] [F,CF][F,CF] | [F,=A,E]2 [B,,B,]2 | [E,B,]E, E,E, | %13
 E,E, E,2 | C,C, E,E, | B,,2 E,2 |] %16

